X:241
T:Miss Ramsey's
Z: id:dc-reel-221
M:C
L:1/8
K:D Major
B,|D3A AGFG|A3B AGFE|D2FA ADFA|BFAF GBAF|!
D3A AGFG|A3B AGFE|D2FA ADFA|BFAF D3|]!
g|f2df e2ce|dcdA Bcde|f3d edce|d2AG FDD:|!
A|d3f a2fa|g2af gfef|d3f a2fa|gbaf e3:|!
g|f2df e2ce|dcdA Bcde|f3d edce|d2AG FDD:|!

